X:1
T:Evit Gabriel
C:by Daniel Thonon
L:1/8
M:2/2
I:linebreak $
K:G
V:1 treble nm="Voice" snm="Voice"
V:1
"Em" EFGF EF | EFGA BEGB | c2 B2 A2 G2 |"G" BAGB"B" F2 F2 |$ E"Em"FGF EFGF | EFGA BEGB | %6
 cBAG FGFB, |"Em" E8 ::$ eAAe dcBc | dGGd cBAG | FGAc BAGF | E"Em"FGA BEGB |$ eAAe dcBc | %13
 dGGd cBAG | FGAc BAGF |"Em" EG"B"FD"Em" E4 :| %16
